X: 215
T: Old Rosin the Beau
M: 6/8
L: 1/8
Q:1/4=210
K:A % 3 sharps
% (c) SSF July 2006
E|
"A"A2A cBA|"A"e3 "D"f2f|"A"ecA ABc|"D"F3 F2E|\
"A"A2A cBA|"A"e3 "D"f2f|"A"ecA "E"BcB|"A"A3 A2:||\
c/2d/2|
"A"ece efg|"D"a2f agf|"A"ecA ABc|"D"F3 F2E|\
"A"A2A cBA|"A"e3 "D"fga|"A"ecA "E"BcB|"A"A3 A2:||

%  <A name="D1X217"></A>
